Papirus/24x24/apps/libreoffice-base.svg

<?xml version="1.0" encoding="UTF-8" standalone="no"?>
<!-- Created with Inkscape (http://www.inkscape.org/) -->

<svg
   width="24"
   height="24"
   viewBox="0 0 24 24"
   version="1.1"
   id="svg5"
   inkscape:version="1.2.2 (1:1.2.2+202305151914+b0a8486541)"
   sodipodi:docname="libreoffice-base.svg"
   xmlns:inkscape="http://www.inkscape.org/namespaces/inkscape"
   xmlns:sodipodi="http://sodipodi.sourceforge.net/DTD/sodipodi-0.dtd"
   xmlns="http://www.w3.org/2000/svg"
   xmlns:svg="http://www.w3.org/2000/svg">
  <sodipodi:namedview
     id="namedview7"
     pagecolor="#ffffff"
     bordercolor="#000000"
     borderopacity="0.25"
     inkscape:showpageshadow="2"
     inkscape:pageopacity="0.0"
     inkscape:pagecheckerboard="0"
     inkscape:deskcolor="#d1d1d1"
     inkscape:document-units="px"
     showgrid="false"
     inkscape:zoom="34.583333"
     inkscape:cx="12"
     inkscape:cy="12"
     inkscape:window-width="1920"
     inkscape:window-height="1008"
     inkscape:window-x="0"
     inkscape:window-y="0"
     inkscape:window-maximized="1"
     inkscape:current-layer="svg5" />
  <defs
     id="defs2" />
  <path
     d="m 15,2.5 h 5 v 5 z m -8,0 h 7 l 6,6 v 11 c 0,1.661998 -1.338,3 -3,3 H 7 c -1.662,0 -3,-1.338 -3,-3 v -14 c 0,-1.662 1.338,-3 3,-3 z"
     style="opacity:0.2;fill:#000000;fill-opacity:1;stroke-width:1.5;stroke-linecap:square"
     id="path900" />
  <path
     id="rect339"
     style="fill:#8b3ea7;fill-opacity:1;stroke-width:1.5;stroke-linecap:square"
     d="m 7,2 h 7 l 6,6 v 11 c 0,1.661998 -1.338,3 -3,3 H 7 C 5.338,22 4,20.662 4,19 V 5 C 4,3.338 5.338,2 7,2 Z" />
  <path
     d="m 15,2 h 5 v 5 z"
     style="fill:#ab63c5;fill-opacity:1;stroke-width:0.3125;stroke-linecap:square"
     id="path1087" />
  <path
     d="m 9,9.5 c -1.65685,0 -3,0.44772 -3,1 v 1 c 0,0.55228 1.34315,1 3,1 1.65685,0 3,-0.44772 3,-1 v -1 c 0,-0.55228 -1.34315,-1 -3,-1 z m 4,2 v 7 h 5 v -7 z m -7,1 v 1 c 0,0.55228 1.34315,1 3,1 1.65685,0 3,-0.44772 3,-1 v -1 c 0,0.55228 -1.34315,1 -3,1 -1.65685,0 -3,-0.44772 -3,-1 z m 8,0 h 1 v 1 h -1 z m 2,0 h 1 v 1 h -1 z m -10,2 v 1 c 0,0.55228 1.34315,1 3,1 1.65685,0 3,-0.44772 3,-1 v -1 c 0,0.55228 -1.34315,1 -3,1 -1.65685,0 -3,-0.44772 -3,-1 z m 8,0 h 1 v 1 h -1 z m 2,0 h 1 v 1 h -1 z m -10,2 v 1 c 0,0.55228 1.34315,1 3,1 1.65685,0 3,-0.44772 3,-1 v -1 c 0,0.55228 -1.34315,1 -3,1 -1.65685,0 -3,-0.44772 -3,-1 z m 8,0 h 1 v 1 h -1 z m 2,0 h 1 v 1 h -1 z"
     style="opacity:0.2;fill:#000000"
     id="path1508" />
  <path
     id="rect368"
     style="fill:#ffffff"
     d="m 13,11 v 7 h 5 v -7 z m 1,1 h 1 v 1 h -1 z m 2,0 h 1 v 1 h -1 z m -2,2 h 1 v 1 h -1 z m 2,0 h 1 v 1 h -1 z m -2,2 h 1 v 1 h -1 z m 2,0 h 1 v 1 h -1 z"
     sodipodi:nodetypes="ccccccccccccccccccccccccccccccccccc" />
  <path
     id="path557"
     style="fill:#d48ff7;fill-opacity:1;stroke-width:1.22474"
     d="M 9,9 C 7.34315,9 6,9.44772 6,10 v 1 c 0,0.55228 1.34315,1 3,1 1.65685,0 3,-0.44772 3,-1 V 10 C 12,9.44772 10.65685,9 9,9 Z m -3,3 v 1 c 0,0.55228 1.34315,1 3,1 1.65685,0 3,-0.44772 3,-1 v -1 c 0,0.55228 -1.34315,1 -3,1 -1.65685,0 -3,-0.44772 -3,-1 z m 0,2 v 1 c 0,0.55228 1.34315,1 3,1 1.65685,0 3,-0.44772 3,-1 v -1 c 0,0.55228 -1.34315,1 -3,1 -1.65685,0 -3,-0.44772 -3,-1 z m 0,2 v 1 c 0,0.55228 1.34315,1 3,1 1.65685,0 3,-0.44772 3,-1 v -1 c 0,0.55228 -1.34315,1 -3,1 -1.65685,0 -3,-0.44772 -3,-1 z" />
  <path
     id="path1067"
     style="opacity:0.2;fill:#ffffff;fill-opacity:1;stroke-width:1.5;stroke-linecap:square"
     d="M 7,2 C 5.3380015,2 4,3.3380017 4,5 v 0.5 c 0,-1.6619983 1.3380015,-3 3,-3 h 7.5 L 14,2 Z m 8,0 0.5,0.5 H 20 V 2 Z" />
</svg>

<svg xmlns="http://www.w3.org/2000/svg" width="24" height="24" version="1.1">
 <path style="opacity:0.2" d="M 7,2.5 H 13 L 20,9.5 V 19.5 C 20,21.16 18.66,22.5 17,22.5 H 7 C 5.34,22.5 4,21.16 4,19.5 V 5.5 C 4,3.84 5.34,2.5 7,2.5 Z"/>
 <path style="fill:#8b3ea7" d="M 7,2 H 13 L 20,9 V 19 C 20,20.66 18.66,22 17,22 H 7 C 5.34,22 4,20.66 4,19 V 5 C 4,3.34 5.34,2 7,2 Z"/>
 <path style="fill:#ab63c5" d="m 15,2 h 5 v 5 z"/>
 <path style="opacity:0.2" d="m 9,9.5 c -1.66,0 -3,0.45 -3,1 v 1 c 0,0.55 1.34,1 3,1 1.66,0 3,-0.45 3,-1 v -1 c 0,-0.55 -1.34,-1 -3,-1 z m 4,2 v 7 h 5 v -7 z m -7,1 v 1 c 0,0.55 1.34,1 3,1 1.66,0 3,-0.45 3,-1 v -1 c 0,0.55 -1.34,1 -3,1 -1.66,0 -3,-0.45 -3,-1 z m 8,0 h 1 v 1 h -1 z m 2,0 h 1 v 1 h -1 z m -10,2 v 1 c 0,0.55 1.34,1 3,1 1.66,0 3,-0.45 3,-1 v -1 c 0,0.55 -1.34,1 -3,1 -1.66,0 -3,-0.45 -3,-1 z m 8,0 h 1 v 1 h -1 z m 2,0 h 1 v 1 h -1 z m -10,2 v 1 c 0,0.55 1.34,1 3,1 1.66,0 3,-0.45 3,-1 v -1 c 0,0.55 -1.34,1 -3,1 -1.66,0 -3,-0.45 -3,-1 z m 8,0 h 1 v 1 h -1 z m 2,0 h 1 v 1 h -1 z"/>
 <path style="fill:#ebd9f1" d="M 13,11 V 18 H 18 V 11 Z M 14,12 H 15 V 13 H 14 Z M 16,12 H 17 V 13 H 16 Z M 14,14 H 15 V 15 H 14 Z M 16,14 H 17 V 15 H 16 Z M 14,16 H 15 V 17 H 14 Z M 16,16 H 17 V 17 H 16 Z"/>
 <path style="fill:#d48ff7" d="M 9,9 C 7.34,9 6,9.45 6,10 v 1 c 0,0.55 1.34,1 3,1 1.66,0 3,-0.45 3,-1 V 10 C 12,9.45 10.66,9 9,9 Z m -3,3 v 1 c 0,0.55 1.34,1 3,1 1.66,0 3,-0.45 3,-1 v -1 c 0,0.55 -1.34,1 -3,1 -1.66,0 -3,-0.45 -3,-1 z m 0,2 v 1 c 0,0.55 1.34,1 3,1 1.66,0 3,-0.45 3,-1 v -1 c 0,0.55 -1.34,1 -3,1 -1.66,0 -3,-0.45 -3,-1 z m 0,2 v 1 c 0,0.55 1.34,1 3,1 1.66,0 3,-0.45 3,-1 v -1 c 0,0.55 -1.34,1 -3,1 -1.66,0 -3,-0.45 -3,-1 z"/>
 <path style="opacity:0.2;fill:#ffffff" d="M 15,2 15.5,2.5 H 20 V 2 Z"/>
 <path style="fill:#ffffff;opacity:0.1" d="M 7 2 C 5.34 2 4 3.34 4 5 L 4 5.5 C 4 3.84 5.34 2.5 7 2.5 L 13 2.5 L 20 9.5 L 20 9 L 13 2 L 7 2 z"/>
</svg>
